X: 11
T: Cat's Meow, The
C: Joanie Madden
Z: shanachie
S: https://thesession.org/tunes/342#setting37395
R: jig
M: 6/8
L: 1/8
K: Dmaj
D|FAd f2 f|afe dBA|B2 B BAB|dAF E2 E|
FAd fef|afe dBA|B/c/de fdB|AFE D2:|
|:e|fdB A2 A|DFA def|g2 g ged|ced cBA|
fdB A2A|DFA def|gec age|edc d2:|
|:B|Adf a2 a|agf agf|Ace g2 g|gfe gfe|
fef gfg|a2 a bge|a2 a bge|edc d2:|

